src/img/icons/article.svg

<svg width="32" height="32" viewBox="0 0 32 32" fill="none" xmlns="http://www.w3.org/2000/svg">
<path d="M4.53085 27.8C3.82362 27.8 3.225 27.555 2.735 27.065C2.245 26.575 2 25.9764 2 25.2691V10.65C2 10.352 2.10057 10.1026 2.3017 9.90169C2.5026 9.70056 2.75203 9.59999 3.05 9.59999C3.34797 9.59999 3.5974 9.70056 3.7983 9.90169C3.99943 10.1026 4.1 10.352 4.1 10.65V25.2691C4.1 25.3769 4.14492 25.4756 4.23475 25.5652C4.32435 25.6551 4.42305 25.7 4.53085 25.7H23.35C23.648 25.7 23.8974 25.8006 24.0983 26.0017C24.2994 26.2026 24.4 26.452 24.4 26.75C24.4 27.048 24.2994 27.2974 24.0983 27.4983C23.8974 27.6994 23.648 27.8 23.35 27.8H4.53085ZM10.1308 22.2C9.42362 22.2 8.825 21.955 8.335 21.465C7.845 20.975 7.6 20.3764 7.6 19.6691V5.26559C7.6 4.90462 7.72075 4.60351 7.96225 4.36224C8.20352 4.12074 8.50463 3.99999 8.8656 3.99999H28.7344C29.0954 3.99999 29.3965 4.12074 29.6378 4.36224C29.8793 4.60351 30 4.90462 30 5.26559V19.6691C30 20.3764 29.755 20.975 29.265 21.465C28.775 21.955 28.1764 22.2 27.4692 22.2H10.1308ZM10.1308 20.1H27.4692C27.577 20.1 27.6757 20.0551 27.7653 19.9652C27.8551 19.8756 27.9 19.7769 27.9 19.6691V6.09999H9.7V19.6691C9.7 19.7769 9.74492 19.8756 9.83475 19.9652C9.92435 20.0551 10.0231 20.1 10.1308 20.1ZM13.55 15.9H17.05C17.348 15.9 17.5974 15.7994 17.7983 15.5983C17.9994 15.3974 18.1 15.148 18.1 14.85V9.94999C18.1 9.65203 17.9994 9.40259 17.7983 9.20169C17.5974 9.00056 17.348 8.89999 17.05 8.89999H13.55C13.252 8.89999 13.0026 9.00056 12.8017 9.20169C12.6006 9.40259 12.5 9.65203 12.5 9.94999V14.85C12.5 15.148 12.6006 15.3974 12.8017 15.5983C13.0026 15.7994 13.252 15.9 13.55 15.9ZM20.9 15.9H23.7C24.0967 15.9 24.4292 15.7658 24.6975 15.4975C24.9658 15.2292 25.1 14.8967 25.1 14.5C25.1 14.1033 24.9658 13.7708 24.6975 13.5025C24.4292 13.2342 24.0967 13.1 23.7 13.1H20.9C20.5033 13.1 20.1708 13.2342 19.9025 13.5025C19.6342 13.7708 19.5 14.1033 19.5 14.5C19.5 14.8967 19.6342 15.2292 19.9025 15.4975C20.1708 15.7658 20.5033 15.9 20.9 15.9ZM20.9 11.7H23.7C24.0967 11.7 24.4292 11.5658 24.6975 11.2975C24.9658 11.0292 25.1 10.6967 25.1 10.3C25.1 9.90333 24.9658 9.57083 24.6975 9.30249C24.4292 9.03416 24.0967 8.89999 23.7 8.89999H20.9C20.5033 8.89999 20.1708 9.03416 19.9025 9.30249C19.6342 9.57083 19.5 9.90333 19.5 10.3C19.5 10.6967 19.6342 11.0292 19.9025 11.2975C20.1708 11.5658 20.5033 11.7 20.9 11.7Z" fill="#131212"/>
</svg>

<svg xmlns="http://www.w3.org/2000/svg" viewBox="0 0 32 32">
  <path fill="currentColor" d="M4.53 27.8a2.443 2.443 0 0 1-1.795-.735A2.443 2.443 0 0 1 2 25.269V10.65c0-.298.1-.547.302-.748.2-.201.45-.302.748-.302s.547.1.748.302c.201.2.302.45.302.748v14.62c0 .107.045.206.135.295a.41.41 0 0 0 .296.135H23.35c.298 0 .547.1.748.302.201.2.302.45.302.748s-.1.547-.302.748c-.2.201-.45.302-.748.302H4.53Zm5.6-5.6a2.443 2.443 0 0 1-1.795-.735 2.443 2.443 0 0 1-.735-1.796V5.266c0-.361.12-.662.362-.904A1.23 1.23 0 0 1 8.866 4h19.868c.361 0 .662.12.904.362.241.242.362.543.362.904v14.403c0 .707-.245 1.306-.735 1.796s-1.089.735-1.796.735H10.131Zm0-2.1h17.34a.41.41 0 0 0 .295-.135.411.411 0 0 0 .135-.296V6.1H9.7v13.57c0 .107.045.206.135.295a.41.41 0 0 0 .296.135Zm3.42-4.2h3.5c.298 0 .547-.1.748-.302.201-.2.302-.45.302-.748v-4.9c0-.298-.1-.547-.302-.748-.2-.201-.45-.302-.748-.302h-3.5c-.298 0-.547.1-.748.302-.201.2-.302.45-.302.748v4.9c0 .298.1.547.302.748.2.201.45.302.748.302Zm7.35 0h2.8c.397 0 .73-.134.998-.402.268-.269.402-.601.402-.998s-.134-.73-.402-.998a1.355 1.355 0 0 0-.998-.402h-2.8c-.397 0-.73.134-.997.402-.269.269-.403.601-.403.998s.134.73.402.998c.269.268.601.402.998.402Zm0-4.2h2.8c.397 0 .73-.134.998-.402.268-.269.402-.601.402-.998s-.134-.73-.402-.998A1.355 1.355 0 0 0 23.7 8.9h-2.8c-.397 0-.73.134-.997.402-.269.269-.403.601-.403.998s.134.73.402.997c.269.269.601.403.998.403Z"/>
</svg>
